packages/icon-set-extra/svg/main/logo-microsoft.svg

<svg viewBox="0 0 512 512" xmlns="http://www.w3.org/2000/svg"><path d="m31.87 30.58h212.83v212.81h-212.83zm235.02 0h212.81v212.81h-212.81zm-235.02 235.03h212.83v212.8h-212.83zm235.02 0h212.81v212.8h-212.81z"/></svg>

<svg xmlns="http://www.w3.org/2000/svg" viewBox="0 0 512 512"><path d="M31.87 30.58H244.7v212.81H31.87zm235.02 0H479.7v212.81H266.89zM31.87 265.61H244.7v212.8H31.87zm235.02 0H479.7v212.8H266.89z"/></svg>
